src/images/crypto-icon-svg/etn.svg

<svg xmlns="http://www.w3.org/2000/svg" width="32" height="32" viewBox="0 0 32 32">
  <g fill="none">
    <circle cx="16" cy="16" r="16" fill="#23BEE2"/>
    <path fill="#FFF" d="M19.87871,13.4688456 L23.11777,10.0574713 C24.5116423,11.7218331 25.2739465,13.8240124 25.27069,15.9945027 C25.27069,21.112004 21.12006,25.2605597 16,25.2605597 C14.4374719,25.2628069 12.8999583,24.8684632 11.53158,24.1144928 L19.7697,19.8684158 L21.11247,19.1757621 L19.86947,18.3169815 L18.981,17.7030485 L21.57095,16.3808496 L22.85872,15.7232684 L21.70548,14.8510745 L19.87871,13.4688456 Z M12.12129,19.0034783 L9.10124,22.1837481 C7.62669,20.5429285 6.72931,18.3736032 6.72931,15.9945027 C6.72931,10.8770015 10.87994,6.72844578 16,6.72844578 C17.7348316,6.72599255 19.4352084,7.21245357 20.906,8.132004 L12.2303,12.604018 L10.88753,13.2966717 L12.13053,14.1554523 L13.019,14.7693853 L10.42905,16.091914 L9.14128,16.7494953 L10.29452,17.6216892 L12.12129,19.0034783 Z M8.53628,22.7786607 L7.91115,23.4369015 C6.10495,21.4773513 5,18.8626387 5,15.9945027 C5,9.93213393 9.9346,5 16,5 C18.49348,5 20.796,5.83404298 22.64279,7.23705147 L21.74079,7.70189905 C20.055892,6.53075787 18.0522719,5.90405934 16,5.90627686 C10.43455,5.90627686 5.90673,10.4318341 5.90673,15.9945027 C5.90673,18.6042679 6.903,20.986007 8.53628,22.7786607 Z M23.68427,9.46145927 L24.31182,8.80057971 C25.9858,10.7301149 27,13.2458771 27,15.9945027 C27,22.0568716 22.0654,26.9890055 16,26.9890055 C13.7648389,26.9914111 11.5825965,26.3093047 9.74705,25.0345127 L10.67105,24.5581209 C12.2688591,25.5564594 14.1156789,26.0848329 16,26.0827286 C21.56545,26.0827286 26.09327,21.5571714 26.09327,15.9945027 C26.09327,13.5045777 25.18555,11.2228886 23.68427,9.46145927 Z M10.84166,16.8990205 L14.78318,14.8863668 L12.64643,13.409915 L24.47528,7.31192404 L18.52296,13.58 L21.15834,15.5733033 L17.21682,17.585957 L19.35357,19.0624088 L7.52472,25.1603998 L13.47704,18.8923238 L10.84166,16.8990205 Z"/>
  </g>
</svg>

<svg xmlns="http://www.w3.org/2000/svg" width="32" height="32"><g fill="none"><circle cx="16" cy="16" r="16" fill="#23BEE2"/><path fill="#FFF" d="M19.879 13.469l3.239-3.412a9.225 9.225 0 0 1 2.153 5.938c0 5.117-4.15 9.266-9.271 9.266a9.232 9.232 0 0 1-4.468-1.147l8.238-4.246 1.342-.692-1.243-.859-.888-.614 2.59-1.322 1.288-.658-1.154-.872-1.826-1.382zm-7.758 5.534l-3.02 3.18a9.228 9.228 0 0 1-2.372-6.188c0-5.118 4.15-9.267 9.271-9.267a9.23 9.23 0 0 1 4.906 1.404l-8.676 4.472-1.342.693 1.243.858.888.614-2.59 1.323-1.288.657 1.154.873 1.826 1.381zM8.536 22.78l-.625.658A10.95 10.95 0 0 1 5 15.995C5 9.932 9.935 5 16 5c2.493 0 4.796.834 6.643 2.237l-.902.465A10.04 10.04 0 0 0 16 5.906c-5.565 0-10.093 4.526-10.093 10.089 0 2.61.996 4.991 2.63 6.784zM23.684 9.46l.628-.66A10.944 10.944 0 0 1 27 15.995c0 6.062-4.935 10.994-11 10.994a10.941 10.941 0 0 1-6.253-1.954l.924-.477A10.036 10.036 0 0 0 16 26.083c5.565 0 10.093-4.526 10.093-10.088 0-2.49-.907-4.772-2.409-6.534zM10.842 16.9l3.941-2.013-2.137-1.476 11.83-6.098-5.953 6.268 2.635 1.993-3.941 2.013 2.137 1.476-11.83 6.098 5.953-6.268-2.635-1.993z"/></g></svg>
